X:1
T: The White Picket Fence
C:
R:Strathspey
Q: 128
K:C
M:4/4
L:1/16
|:G4|c4 c4 A3B c2A2|G2A2 G2F2 E4 C4|c4 c4 A3B c2A2|G12 G4|
c4 c4 A3B c2A2|G2A2 G2F2 E4 C4|D4 E4 ((3D2E2F2) ((3G2A2B2) |c8-c4B4|
A4 A4 A3c e2c2|d3e d2c2 B4 G4|A4 A4 A2B2 c2e2|a8 g6 f2|
e4 e4 c3d e2c2|d2c2 B2A2 G4 F4|E4 C4 ((3D2E2F2) ((3G2A2B2) |c12:|
